flaticon/essential/video-player-1.svg

<svg xmlns="http://www.w3.org/2000/svg" width="32" height="32" viewBox="0 0 24 24">
    <path d="M 23.585938 2.484375 L 0.414062 2.484375 C 0.183594 2.484375 0 2.667969 0 2.898438 L 0 21.101562 C 0 21.332031 0.183594 21.515625 0.414062 21.515625 L 23.585938 21.515625 C 23.816406 21.515625 24 21.332031 24 21.101562 L 24 2.898438 C 24 2.667969 23.816406 2.484375 23.585938 2.484375 Z M 23.171875 11.585938 L 19.863281 11.585938 L 19.863281 7.863281 L 23.171875 7.863281 Z M 19.035156 7.449219 L 19.035156 11.585938 L 4.964844 11.585938 L 4.964844 3.308594 L 19.035156 3.308594 Z M 4.136719 11.585938 L 0.828125 11.585938 L 0.828125 7.863281 L 4.136719 7.863281 Z M 0.828125 12.414062 L 4.136719 12.414062 L 4.136719 16.136719 L 0.828125 16.136719 Z M 4.964844 16.550781 L 4.964844 12.414062 L 19.035156 12.414062 L 19.035156 20.691406 L 4.964844 20.691406 Z M 19.863281 12.414062 L 23.171875 12.414062 L 23.171875 16.136719 L 19.863281 16.136719 Z M 23.171875 3.308594 L 23.171875 7.035156 L 19.863281 7.035156 L 19.863281 3.308594 Z M 0.828125 3.308594 L 4.136719 3.308594 L 4.136719 7.035156 L 0.828125 7.035156 Z M 0.828125 20.691406 L 0.828125 16.964844 L 4.136719 16.964844 L 4.136719 20.691406 Z M 23.171875 20.691406 L 19.863281 20.691406 L 19.863281 16.964844 L 23.171875 16.964844 Z M 23.171875 20.691406"/>
</svg>

<svg xmlns="http://www.w3.org/2000/svg" width="32" height="32" viewBox="0 0 24 24">
    <path d="M23.586 2.484H.414A.412.412 0 0 0 0 2.898v18.204c0 .23.184.414.414.414h23.172c.23 0 .414-.184.414-.414V2.898a.412.412 0 0 0-.414-.414zm-.414 9.102h-3.309V7.863h3.309zm-4.137-4.137v4.137H4.965V3.309h14.07zM4.137 11.586H.828V7.863h3.309zm-3.309.828h3.309v3.723H.828zm4.137 4.137v-4.137h14.07v8.277H4.965zm14.898-4.137h3.309v3.723h-3.309zm3.309-9.105v3.726h-3.309V3.31zm-22.344 0h3.309v3.726H.828zm0 17.382v-3.726h3.309v3.726zm22.344 0h-3.309v-3.726h3.309zm0 0"/>
</svg>
